src/assets/images/tech/swift.svg

<svg width="32" height="32" viewBox="0 0 32 32" fill="none" xmlns="http://www.w3.org/2000/svg">
<g id="swift">
<g id="swift_2">
<path id="Vector" d="M7.11045 0H24.8285C25.6907 0 26.5279 0.1375 27.34 0.425C28.5146 0.85 29.5767 1.6 30.3764 2.575C31.1885 3.55 31.7258 4.75 31.9133 6C31.9882 6.4625 32.0007 6.925 32.0007 7.3875V24.675C32.0007 25.225 31.9757 25.7875 31.8633 26.325C31.6134 27.5625 31.0261 28.725 30.1764 29.6625C29.3393 30.6 28.2397 31.3 27.0527 31.675C26.3279 31.9 25.5782 32 24.816 32C24.4787 32 7.06047 32 6.79807 31.9875C5.52357 31.925 4.26156 31.5125 3.19947 30.8C2.16238 30.1 1.31271 29.125 0.762926 28C0.288111 27.0375 0.050704 25.9625 0.050704 24.8875V7.1125C0.0257137 6.05 0.250626 5 0.712945 4.05C1.25024 2.925 2.08741 1.9375 3.1245 1.2375C4.18659 0.5125 5.4361 0.0875 6.7106 0.025C6.83555 0 6.973 0 7.11045 0Z" fill="url(#paint0_linear_1009_4622)"/>
<path id="Vector_2" d="M26.9894 26.175C26.877 26 26.752 25.825 26.6146 25.6625C26.3022 25.2875 25.9398 24.9625 25.54 24.6875C25.0402 24.35 24.4529 24.1375 23.8532 24.1125C23.4283 24.0875 23.0035 24.1625 22.6036 24.3125C22.2038 24.45 21.8165 24.65 21.4416 24.85C21.0043 25.075 20.5669 25.3 20.1046 25.4875C19.5548 25.7125 18.9801 25.8875 18.3928 26.0125C17.6556 26.15 16.9059 26.2 16.1687 26.1875C14.8317 26.1625 13.4947 25.9625 12.2202 25.5875C11.0957 25.25 10.0211 24.7875 9.00897 24.2C8.12182 23.6875 7.29714 23.1 6.52245 22.4375C5.88519 21.8875 5.29792 21.3 4.74814 20.675C4.37329 20.2375 4.01093 19.775 3.67356 19.3C3.53611 19.1125 3.41116 18.9125 3.29871 18.7125L0 15.15V7.0875C0 3.175 3.16126 0 7.07223 0H13.3823L18.0554 4.75C28.6013 11.925 25.1901 19.8375 25.1901 19.8375C25.1901 19.8375 28.189 23.2125 26.9894 26.175Z" fill="url(#paint1_linear_1009_4622)"/>
<path id="Vector_3" d="M18.0805 4.75C28.6264 11.925 25.2152 19.8375 25.2152 19.8375C25.2152 19.8375 28.214 23.225 27.002 26.1875C27.002 26.1875 25.765 24.1125 23.6908 24.1125C21.6916 24.1125 20.5171 26.1875 16.4936 26.1875C7.53466 26.1875 3.29883 18.7 3.29883 18.7C11.3707 24.0125 16.881 20.25 16.881 20.25C13.2449 18.1375 5.51046 8.0375 5.51046 8.0375C12.2453 13.775 15.1567 15.2875 15.1567 15.2875C13.4198 13.85 8.54676 6.825 8.54676 6.825C12.4452 10.775 20.1922 16.2875 20.1922 16.2875C22.3913 10.1875 18.0805 4.75 18.0805 4.75Z" fill="white"/>
</g>
</g>
<defs>
<linearGradient id="paint0_linear_1009_4622" x1="19.0297" y1="-1.14187" x2="12.9816" y2="33.1449" gradientUnits="userSpaceOnUse">
<stop stop-color="#FAAE42"/>
<stop offset="1" stop-color="#EF3E31"/>
</linearGradient>
<linearGradient id="paint1_linear_1009_4622" x1="16.3201" y1="0.517" x2="11.8936" y2="25.611" gradientUnits="userSpaceOnUse">
<stop stop-color="#E39F3A"/>
<stop offset="1" stop-color="#D33929"/>
</linearGradient>
</defs>
</svg>

<svg xmlns="http://www.w3.org/2000/svg" width="32" height="32" fill="none"><path fill="url(#a)" d="M7.11 0H24.83c.862 0 1.699.138 2.511.425a7.06 7.06 0 0 1 3.036 2.15A7 7 0 0 1 31.913 6c.075.463.088.925.088 1.388v17.287c0 .55-.025 1.113-.138 1.65a7.1 7.1 0 0 1-1.687 3.338 7.1 7.1 0 0 1-3.123 2.012 7.5 7.5 0 0 1-2.237.325c-.337 0-17.756 0-18.018-.012A7.13 7.13 0 0 1 3.2 30.8 7.2 7.2 0 0 1 .763 28a7.06 7.06 0 0 1-.712-3.113V7.113A6.64 6.64 0 0 1 .713 4.05a7.1 7.1 0 0 1 2.412-2.812A7 7 0 0 1 6.71.024C6.836 0 6.973 0 7.11 0"/><path fill="url(#b)" d="M26.99 26.175a5 5 0 0 0-.375-.512 5.3 5.3 0 0 0-1.075-.976 3.3 3.3 0 0 0-1.687-.575c-.425-.024-.85.05-1.25.2-.4.138-.787.338-1.161.538-.438.225-.875.45-1.337.637-.55.226-1.125.4-1.712.526-.737.137-1.487.187-2.224.174a15 15 0 0 1-3.949-.6c-1.124-.337-2.199-.8-3.211-1.387a16.6 16.6 0 0 1-2.487-1.762 18 18 0 0 1-1.774-1.763A19 19 0 0 1 3.674 19.3a6 6 0 0 1-.375-.588L0 15.15V7.088C0 3.175 3.161 0 7.072 0h6.31l4.673 4.75c10.546 7.175 7.135 15.087 7.135 15.087s2.999 3.375 1.8 6.338"/><path fill="#fff" d="M18.08 4.75c10.546 7.175 7.135 15.087 7.135 15.087s2.999 3.388 1.787 6.35c0 0-1.237-2.075-3.311-2.075-2 0-3.174 2.076-7.197 2.076-8.96 0-13.195-7.488-13.195-7.488 8.072 5.313 13.582 1.55 13.582 1.55-3.636-2.113-11.37-12.212-11.37-12.212 6.734 5.737 9.646 7.25 9.646 7.25-1.737-1.438-6.61-8.463-6.61-8.463 3.898 3.95 11.645 9.463 11.645 9.463 2.2-6.1-2.111-11.538-2.111-11.538"/><defs><linearGradient id="a" x1="19.03" x2="12.982" y1="-1.142" y2="33.145" gradientUnits="userSpaceOnUse"><stop stop-color="#FAAE42"/><stop offset="1" stop-color="#EF3E31"/></linearGradient><linearGradient id="b" x1="16.32" x2="11.894" y1=".517" y2="25.611" gradientUnits="userSpaceOnUse"><stop stop-color="#E39F3A"/><stop offset="1" stop-color="#D33929"/></linearGradient></defs></svg>
